X:1
T:Inclina Mater misericordiae
T:Ignatio Donati
T:Source : Primo libro di Motetti a voce sola---Venetia---A.Vincenti---1634. Editor : André Vierendeels (11/12/16).
T:Notes : Original clefs : C1, F4 Editorial accidentals above the staff Original note values have been halved in 3-beat measures Fifures in BC are notated in original print Dotted brackets indicate black notes "Canto o Tenore"  
T:Inclina Mater misericordiae
T:©
T:©
T:©
T:©
T:©
T:©
C:Ignatio Donati
Z:©
%%score 1 2
L:1/8
Q:1/4=120
M:4/4
K:F
V:1 treble nm="Soprano" snm="S"
V:2 bass nm="MusicXML Part"
V:1
 z4 B4 | B6 A/B/c | A4 A4 | z4 d4 | d4 d>e f2 | c4 c2 d2 | d2 A2 B3 B | B2 GA BAAG | A4 B2 cB | %9
w: In-|cli- na- * *|Ma- ter,|in-|cli- na- * *|Ma- ter mi-|se- ri- cor- di-|ae au- res tu- ae pi- e-|ta- tis, in- *|
 A4 G4 | z2 cd _eddc | d4 _e3 d | d8 | c4 z2 G2 | A4 A2 c2 | d4 d4 | GGGA B2 Bc | %17
w: cli- na|au- res tu- ae pi- e-|ta- tis, in-|cli-|na, in-|di- gnis, in-|di- gnis|sup- pli- ca- ti- o- ni- bus|
 d/c/B/A/ B/F/G/A/ B/c/d/c/ B/A/B/G/ | A/G/F/G/ A/B/c/A/ B/A/B/c/ d/c/d/B/ | c8 | B8 | %21
w: me- * * * * * * * * * * * * * * *|||is,|
 _eeed c2 GA | B/A/G/F/ G/A/B/c/ d/A/B/c/ d/c/B/A/ | B/F/G/A/ B/A/B/c/ d/c/B/A/ B/A/B/G/ | A8 | %25
w: sup- pli- ca- ti- o- ni- bus|me- * * * * * * * * * * * * * * *|||
 G8 | z8 | z4 c4- | c2 GF G4 | G4 ^G4 | A6 E2 | E4 E2 F2 | G/F/E/F/ G/E/F/G/ A/E/F/G/ A/c/B/A/ | %33
w: is,||et|_ es- to mi-|hi mi-|se- ri-|mo pec- ca-|to- * * * * * * * * * * * * * * *|
 B/A/B/G/ A/G/A/F/ G4 | F4 B4- | B4 A4- | A2 DE E3 D | D4 d4- | d4 c4- | c2 FG G3 F | F2 c2 d3 d | %41
w: |ri pi-|* a|_ et pro- pi- ti-|a, pi-|* a|_ et pro- pi- ti-|a in o- mni-|
 d2 c2 _e3 e | _eedc d4 | c4 z2 G2 | A3 A A2 G2 | B3 B BBAG | A8 | G8 |[M:6/4] F2 E2 F2 G2 A2 G2 | %49
w: bus, in o- mni-|bus au- xi- li- a-|trix, in|o- mni- bus, in|o- mni- bus au- xi- li-|a-|trix.|Al- * * * * *|
 B2 A2 G2 F2 E4 | F2 A2 G2 F2 E4 | D2 C2 D2 E2 F2 E2 | G2 F2 E8 | D8 z4 | B2 A2 B2 c2 d2 c2 | %55
w: le- * * * lu-|ia, _ _ _ _|al- * * * * *|le- * lu-|ia,|al- * * * * *|
 _e2 d2 c2 B2 A4 | B2 d2 c2 B2 A4 | G2 F2 G2 A2 B2 A2 | c2 B2 A8 |[M:4/4] G4 z2 d2- | %60
w: le- * * * lu-|ia, _ _ _ _|al- * * * * *|le- * lu-|ia, al-|
"^b" d/c/B/A/ G/F/G/A/ B/F/G/A/ B/A/B/c/ | d/F/G/A/ B/D/E/F/ G/A/B/c/ d2- | d2 A2 A4 | G8 |] %64
w: ||* le- lu-|ia.|
V:2
"^BC" G,,8 | G,,8 |"^#" D,8 | B,,8 | D,8 | F,8 | ^F,4 G,4 | _E,8 |"^#" D,4 D,2 C,2 | %9
"^#""^-natural" D,4 G,,4 |"^b" C,8 | G,4 G,2 F,2 |"^-natural" G,8 | C,4 C,4 | F,,4 F,,4 | %15
 B,,4 B,,4 | _E,8 | B,,8 | F,,8 | F,,8 | B,,8 |"^b" C,8 | G,,8 | G,,8 | D,8 | %25
"^-natural""^-natural" G,,4 G,,4 |"^-natural" C,4 B,,4 | C,4 F,,4 | C,8 | C,4 =B,,4 | %30
"^#""^#" A,,4 A,,4 | A,,6 F,,2 | C,8- | C,8 | F,,4 G,,4 | G,,4 D,4 |"^#" B,,4 A,,4 |"^#" D,4 B,,4 | %38
 F,8 | D,4 C,4 | F,,4 B,,4 |"^b" B,,2 F,,2 C,4 |"^-natural""^b" C,4 G,,4 | C,4 C,4 | %44
 F,,4 F,,2 C,2 | G,,4 _E,4 |"^#""^#" D,2 C,2 D,4 |"^-natural" G,,8 |[M:6/4] D,8 C,4 | B,,8 C,4 | %50
"^#" F,,4 G,,4 A,,4 | B,,8 A,,4 |"^#" G,,4 A,,8 |"^#" D,8 z4 | G,8 F,4 | _E,8 F,4 | %56
"^#" B,,4 C,4 D,4 | _E,8 D,4 |"^#" C,4 D,8 |[M:4/4]"^-natural" G,,8 |"^b" G,,8 | G,,8 |"^#" D,8 | %63
 G,,8 |] %64

